X:1
T:L'Ingénüe
T:L'Ingénüe
T:Jean Benjamin de La Borde
C:Jean Benjamin de La Borde
Z:François-Augustin de Paradis de Moncrif
%%score 1 { ( 2 4 ) | ( 3 5 ) }
L:1/8
Q:1/4=80
M:3/4
K:G
V:1 treble nm="Soprano" snm="S."
V:2 treble nm="Harpsichord" snm="Harpsi"
V:4 treble 
V:3 bass 
V:5 bass 
V:1
"^Largetto" (GA) |{/c} B4 (c<A) | c4 B2 |{/B} A2 G2 B2 | d4{/c} B2 |{/A} G2 c4 |{/B} A4 (GA) | %7
w: Vrai *|Dieu quel *|trouble ex-|trê- me d'a-|voir beau-|coup d'a-|mants qui *|
w: Te- *|nez, l'au- \--|tre Nui-|tée Tan- dis|que je|dor- mais,|Trois fois *|
 B4 (c<A) | c4 B2 |{/B} A2 G2 B2 | d4{/c} B2 |{/A} G2 c4 |{/B} A6 | A2 A2 A2 | (EF) G4 | %15
w: veu- lent *|qu'on les|ai- me et|tous en|mê- me|temps.|Mais moi qui|suis * sin-|
w: l'â- me *|en- chan-|tée Je ré-|vais que|j'ai- mais,|De-|puis, je ne|dé- * si-|
{/G} F4{/E} D2 | G2{/G} F2 G2 | (AB) c4 |{/B} A6 | A2 A2 A2 | (EF) G4 |{/G} F4 D2 | G2{/G} F2 G2 | %23
w: cè- re,|Je dis a-|vec * dou-|ceur,|hé- las! com-|ment * donc|fai- re,|vo- yez je|
w: re Que|d'a- voir tout|à * fait|Un|a- mant qui|m'in- * spi-|re Ce|qu' un son-|
 c2 (B2{/B} A2) | G6 ||[K:Bb] D2 G2 B2 | (B2{/B} A2){/G} ^F2 | G4 D2 | G2 A2 B2 | c2 d4 |{/B} A6 | %31
w: n'ai qu'un *|cœur|Ber- gers est¬|il * pos-|si- ble|que vous me|gron- diez|tous,|
w: ge m'a *|fait.|||||||
 D2 G2 B2 | (B2{/B} A2) ^F2 | A4 D2 | G2 A2 B2 | c2 d4 |{/B} A6 | d2 A2 B2 |{/G} ^F4 G2 | %39
w: de n'ê- tre|pas * sen-|si- ble|à mes soins|les plus|doux|si mon cœur|n'est pas|
w: ||||||||
{/G} A4 B2 | (cd) e2 d2 |{/d} c2 d4 |{/G} ^F6 | G2 A2 B2 | (AB) c4 |{/c} B4 A z | (ed) (cB) (AG) | %47
w: ten- dre|Est * ce ma|faute hé-|las!|tâ- chez de|me * le|pren- dre,|je * ne * le *|
w: ||||||||
 c2 (B2{/B} A2) | G6!D.C.! |] %49
w: dé- fends *|pas.|
w: ||
V:2
 z2 | %1
 z/ G/[I:staff +1]B,/[I:staff -1]D/ z/ G/[I:staff +1]B,/[I:staff -1]D/ z/ F/[I:staff +1]B,/[I:staff -1]C/ | %2
 z/ A/C/E/ z/ A/C/F/ z/ G/[I:staff +1]B,/[I:staff -1]D/ | %3
 z/ F/[I:staff +1]A,/[I:staff -1]C/ [DA]2 z2 | %4
 z/ B/[I:staff +1]B,/[I:staff -1]D/ z/ B/[I:staff +1]B,/[I:staff -1]D/ z/ B/[I:staff +1]B,/[I:staff -1]D/ | %5
 z/ A/C/E/ z/ A/C/E/ z/ A/C/E/ | z/ G/[I:staff +1]B,/[I:staff -1]G/ F2 z2 | %7
 z/ G/[I:staff +1]B,/[I:staff -1]D/ z/ G/[I:staff +1]B,/[I:staff -1]D/ z/ F/[I:staff +1]A,/[I:staff -1]C/ | %8
 z/ A/[I:staff +1]C/[I:staff -1]F/ z/ A/[I:staff +1]C/[I:staff -1]F/ z/ G/[I:staff +1]B,/[I:staff -1]D/ | %9
 z/ F/[I:staff +1]A,/[I:staff -1]C/ [DG]2 z2 | %10
 z/ G/[I:staff +1]B,/[I:staff -1]D/ z/ G/[I:staff +1]B,/[I:staff -1]D/ z/ G/[I:staff +1]B,/[I:staff -1]D/ | %11
 z/ A/C/E/ z/ A/C/E/ z/ A/C/E/ | z/ G/[I:staff +1]B,/[I:staff -1]G/ F2 z2 | %13
 z/ D/[I:staff +1]F,/A,/[I:staff -1] z/ D/[I:staff +1]F,/A,/[I:staff -1] z/ D/[I:staff +1]F,/A,/ | %14
[I:staff -1] z/ E/[I:staff +1]G,/A,/[I:staff -1] z/ E/[I:staff +1]G,/A,/[I:staff -1] z/ E/[I:staff +1]G,/A,/ | %15
[I:staff -1] z/ D/[I:staff +1]F,/A,/[I:staff -1] z/ D/[I:staff +1]F,/A,/[I:staff -1] z/ D/[I:staff +1]F,/A,/ | %16
[I:staff -1] z/ D/[I:staff +1]G,/B,/[I:staff -1] z/ D/[I:staff +1]F,/A,/[I:staff -1] z/ D/[I:staff +1]G,/B,/ | %17
[I:staff -1] z/ D/[I:staff +1]A,/[I:staff -1]C/ z/ D/[I:staff +1]A,/[I:staff -1]C/ z/ D/[I:staff +1]G,/B,/ | %18
[I:staff -1] z/ D/[I:staff +1]F,/A,/[I:staff -1] D2 z2 | %19
 z/ D/[I:staff +1]F,/A,/[I:staff -1] z/ D/[I:staff +1]F,/A,/[I:staff -1] z/ D/[I:staff +1]F,/A,/ | %20
[I:staff -1] z/ E/[I:staff +1]G,/A,/[I:staff -1] z/ E/[I:staff +1]G,/A,/[I:staff -1] z/ E/[I:staff +1]G,/A,/ | %21
[I:staff -1] z/ F/[I:staff +1]A,/C/[I:staff -1] z/ F/[I:staff +1]A,/C/[I:staff -1] z/ F/[I:staff +1]A,/C/ | %22
[I:staff -1] z/ D/[I:staff +1]G,/B,/[I:staff -1] z/ D/[I:staff +1]F,/A,/[I:staff -1] z/ D/[I:staff +1]G,/B,/ | %23
[I:staff -1] z/ E/[I:staff +1]A,/C/[I:staff -1] z/ D/[I:staff +1]G,/B,/[I:staff -1] z/ C/[I:staff +1]F,/A,/ | %24
[I:staff -1] D6 ||[K:Bb] z/ d/G/B/ z/ d/G/B/ z/ d/G/B/ | z/ e/A/c/ z/ e/A/c/ z/ e/A/c/ | %27
 z/ d/G/B/ z/ d/G/B/ z/ d/G/B/ | z/ d/G/B/ z/ d/^F/A/ z/ d/G/B/ | z/ e/A/c/ z/ d/G/B/ z/ d/G/B/ | %30
 z/ d/^F/A/ d2 z2 | z/ d/G/B/ z/ d/G/B/ z/ d/G/B/ | z/ e/A/c/ z/ e/A/c/ z/ e/A/c/ | %33
 z/ d/G/B/ z/ d/G/B/ z/ d/G/B/ | z/ d/G/B/ z/ d/^F/A/ z/ d/G/B/ | z/ e/A/c/ z/ d/G/B/ z/ d/G/B/ | %36
 z/ d/^F/A/ z2 z2 | z/ d/^F/d/ z/ d/=F/d/ z/ =e/G/e/ | z/ ^f/A/f/ z/ f/A/f/ z/ g/B/g/ | %39
 z/ a/c/a/ z/ a/c/a/ z/ b/d/b/ | [ce][Bd] [Ac]2 [GB]2 | [Ac]2 [Bd]4 | [^FAd]6 | %43
 z/ d/G/B/ z/ d/^F/A/ z/ d/G/B/ | z/ d/A/c/ z/ d/A/c/ z/ d/A/c/ | z/ e/G/B/ z/ e/G/B/ [^FAd]2 | %46
 [^FA][GB][Ac][Bd][ce][Bd] | [Ac]2 [GB]2 [Ac]2 | [GBd]6 |] %49
V:3
 z2 |[I:staff -1] B2[I:staff +1] G,2 G,2 | G,2 G,2 G,2 | G,2 G,2 z2 | B,,2 B,,2 B,,2 | %5
 C,2 A,,2 A,,2 | D,2 D,,2 z2 | G,2 G,2 G,2 | G,2 G,2 G,2 | G,2 G,2 z2 | B,,2 B,,2 B,,2 | %11
 C,2 A,,2 A,,2 | D,2 D,,2 z2 | D,2 D,2 D,2 | C,2 C,2 C,2 | D,2 D,2 D,2 | B,,2 A,,2 G,,2 | %17
 F,,2 F,,2 G,,2 | D,2 D,,2 z2 | D,2 D,2 D,2 | ^C,2 C,2 C,2 | =C,2 C,2 C,2 | B,,2 A,,2 G,,2 | %23
 C,2 D,2 D,,2 | G,,6 ||[K:Bb] G,2 B,2 G,2 | C2[I:staff -1] E2[I:staff +1] A,2 | %27
 B,2[I:staff -1] D2[I:staff +1] G,2 | B,2 A,2 G,2 | ^F,2 G,2 G,,2 | D,2 D,,2 C,2 | B,,2 D,2 G,,2 | %32
 C,2 E,2 A,,2 | B,,2 D,2 G,,2 | B,,2 A,,2 G,,2 | ^F,,2 G,,2 G,2 | D,2 D,,2 z2 | D,2 D,2 D,2 | %38
 D,2 D,2 D,2 | D,2 D,2 D,2 | ^F,G, A,2 B,2 | A,2 G,2 G,,2 |[I:staff -1] D4[I:staff +1] C2 | %43
 B,2 A,2 G,2 | ^F,2 F,,2 F,2 | G,2 G,,2 D,2 | CB,A,G,^F,G, | C2[I:staff -1] D2[I:staff +1] D,2 | %48
 G,6 |] %49
V:4
 x2 |[I:staff +1] G,2[I:staff -1] B2 A2 | c2 c2 B2 | C2 B2 x2 | x6 | x6 | x6 | B2 B2 A2 | %8
 c2 c2 B2 | A2 B2 x2 | x6 | x6 | x6 | F2 F2 F2 | G2 G2 G2 | F2 F2 F2 | x6 | x6 | x6 | F2 F2 F2 | %20
 G2 G2 G2 | A2 A2 A2 | x6 | x6 | x6 ||[K:Bb] x6 | x6 | x6 | x6 | x6 | x6 | x6 | x6 | x6 | x6 | x6 | %36
 x6 | D2 D2 D2 | D2 D2 D2 | D2 D2 D2 | x6 | x6 | x6 | x6 | x6 | x6 | x6 | x6 | x6 |] %49
V:5
 x2 | x6 | x6 | x2 B,2 x2 | x6 | x6 | x2 A,2 x2 | x6 | x6 | x2 B,2 x2 | x6 | x6 | x2 A,2 x2 | x6 | %14
 x6 | x6 | x6 | x6 | x6 | x6 | x6 | x6 | x6 | x6 | [G,B,]6 ||[K:Bb] x6 | x6 | x6 | x6 | x6 | x6 | %31
 x6 | x6 | x6 | x6 | x6 | x6 | x6 | x6 | x6 | x6 | x6 | x6 | x6 | x6 | x6 | x6 | x6 | x6 |] %49

